X: 112111
T: Kilcoon
C: Joe Liddy
Z: BB
S: "The Leitrim Fiddler" (Dublin 1981)
L: 1/8
M: 4/4
R: reel
Q: 1/4 = 180
K: G
DB, | G,2 B,D GBdB | c2 ec dBAB | GEDE GABG | A2 BA GEDB, |
G,2 B,D GBdB | cdef g2 ga | bgag edBA | GEDE G2 :|
Bc |: dg g2 dgeg | dg g2 gabg | ea a2 abag | eaag edBc |
dg g2 dgbg | agef g2 ga | bg (3bag edge | dBAd BG G2 :|
